X:14
C:Page 07
T:Tekeli. MBe.14
S:Matthew Betham MS, Towcett Cumbria, 1815
O:England;Cumbria;Towcett
Z:VMP – Hugh Taylor, 2012
M:6/8
L:1/8
Q:3/8=120
R:.Jig
N:Someone in a different hand has written “Tekeli” after the title.
K:G
d|g2 g gfg|e2 g d2 g|def gab|c’2 a f2 d|
g2 g gfg|e2 g d2 g|def gab|c’af g2:|
|:g2 a a3|bc’b (a2 g)|(a2 g) (a2 g)|(a2 g) a2 b|
g2 a b3|bc’b a2 g|a2 g a2 b”^barline added”|g3 g2:|

